X:1632
T:Blue Bell Polka
% Nottingham Music Database
P:ABAC
S:Jimmy Shand
M:4/4
L:1/8
R:Hornpipe
K:G
P:A
(3Bdg|"G"b2b2 gfge|"G"d2d2 B2G2|"D7"FGAB c2e2|"G"ed^cd "D7"B2(3Bdg|
"G"b2b2 gfge|"G"d2d2 B2G2|"D7"FGAB cdef|"G"g2g2 g2:|
K:D
P:B
B2|"D"A2A2 FAdf|"D"a2a2 f4|"A7"a2^g2 =g2e2|"D"b2a^g "A7"a4|"D"A2A2 FAdf|\
"D"a2a2 f4|"A7"a2^g2 =g2e2|"D"d2f2 
P:dc
"D7"d2||\
K:C
P:C
f2|"C"e2e2 efg2|"C"e2e2 efg2|"G7"fefg fdB2|
"G7"fefg fdB2|"C"e2e2 efg2|"C"e2e2 efg2|"G7"fefg fdBd|"C"c2e2 
P:dc
c2||


